glitch-avatars-svg/base_avatar/Avatar.fla/placeholder symbols 2/Avatar_backArmLowerRight2.svg

<?xml version="1.0" encoding="UTF-8" standalone="no"?>
<!-- Generator: flash2svg, http://dissentgraphics.com/tools/flash2svg -->

<svg
   xmlns:dc="http://purl.org/dc/elements/1.1/"
   xmlns:cc="http://creativecommons.org/ns#"
   xmlns:rdf="http://www.w3.org/1999/02/22-rdf-syntax-ns#"
   xmlns:svg="http://www.w3.org/2000/svg"
   xmlns="http://www.w3.org/2000/svg"
   xmlns:sodipodi="http://sodipodi.sourceforge.net/DTD/sodipodi-0.dtd"
   xmlns:inkscape="http://www.inkscape.org/namespaces/inkscape"
   id="Avatar"
   image-rendering="auto"
   version="1.1"
   x="0px"
   y="0px"
   width="11.012072"
   height="12.859634"
   viewBox="0 0 11.012072 12.859634"
   inkscape:version="0.48.4 r9939"
   sodipodi:docname="Avatar_backArmLowerRight2.svg">
  <metadata
     id="metadata3027">
    <rdf:RDF>
      <cc:Work
         rdf:about="">
        <dc:format>image/svg+xml</dc:format>
        <dc:type
           rdf:resource="http://purl.org/dc/dcmitype/StillImage" />
      </cc:Work>
    </rdf:RDF>
  </metadata>
  <sodipodi:namedview
     pagecolor="#ffffff"
     bordercolor="#666666"
     borderopacity="1"
     objecttolerance="10"
     gridtolerance="10"
     guidetolerance="10"
     inkscape:pageopacity="0"
     inkscape:pageshadow="2"
     inkscape:window-width="640"
     inkscape:window-height="480"
     id="namedview3025"
     showgrid="false"
     fit-margin-top="0"
     fit-margin-left="0"
     fit-margin-right="0"
     fit-margin-bottom="0"
     inkscape:zoom="1.8730159"
     inkscape:cx="37.462072"
     inkscape:cy="-60.347917"
     inkscape:window-x="0"
     inkscape:window-y="0"
     inkscape:window-maximized="0"
     inkscape:current-layer="Avatar" />
  <defs
     id="defs3004" />
  <g
     id="backArmLowerRight3"
     overflow="visible"
     style="overflow:visible"
     transform="translate(3.4620718,10.207551)">
    <g
       id="backArmLowerRight2_4">
      <g
         id="element2">
        <path
           id="path8"
           d="m 5.3,-9.9 q 0.6,0.35 0.95,0.75 C 5.9,-9.5 5.4,-9.75 4.8,-9.9 l -0.65,-0.15 c -0.2,-0.05 -0.4,0 -0.65,0.05 -0.25,0.15 -0.55,0.4 -0.85,0.75 -0.5,0.3 -0.95,0.85 -1.35,1.6 -0.35,0.45 -0.65,0.9 -0.95,1.3 -0.35,0.45 -0.65,0.8 -0.9,1.15 -0.65,0.55 -0.95,0.9 -0.95,0.95 -1.7,2 -1.9,3.95 -0.65,5.8 0.2,0.05 0.4,0.1 0.65,0.2 0.25,0.1 0.45,0.15 0.7,0.15 1,-0.2 1.9,-0.55 2.65,-1.05 l 0,-0.05 C 2,0.75 2.2,0.65 2.35,0.5 3,0.05 3.5,-0.55 3.95,-1.25 c -0.05,0.1 -0.05,0.2 -0.1,0.3 l 0.1,0 C 4.8,-2.1 5.6,-3.3 6.25,-4.55 L 6.15,-4.6 C 6.4,-4.95 6.55,-5.35 6.6,-5.75 7.1,-6.4 7.35,-7.2 7.3,-8.2 l 0,-0.05 C 7.1,-8.65 6.8,-9.05 6.4,-9.4 6.15,-9.5 5.95,-9.6 5.75,-9.7 5.6,-9.8 5.45,-9.85 5.3,-9.9 z"
           inkscape:connector-curvature="0"
           style="fill:#ffffcc" />
        <path
           id="path9"
           d="m 7.3,-8.25 0,0.05 c 0.05,1 -0.2,1.8 -0.7,2.45 -0.05,0.4 -0.2,0.8 -0.45,1.15 C 6.2,-4.65 6.3,-4.65 6.35,-4.7 6.3,-4.65 6.3,-4.6 6.25,-4.55 5.6,-3.3 4.8,-2.1 3.95,-0.95 3.9,-0.9 3.85,-0.8 3.8,-0.75 3.85,-0.8 3.85,-0.9 3.85,-0.95 3.9,-1.05 3.9,-1.15 3.95,-1.25 3.5,-0.55 3,0.05 2.35,0.5 2.2,0.65 2,0.75 1.85,0.8 L 1.9,0.8 1.85,0.85 C 1.1,1.35 0.2,1.7 -0.8,1.9 -1.05,1.9 -1.25,1.85 -1.5,1.75 -1.75,1.65 -1.95,1.6 -2.15,1.55 -3.4,-0.3 -3.2,-2.25 -1.5,-4.25 c 0,-0.05 0.3,-0.4 0.95,-0.95 0.25,-0.35 0.55,-0.7 0.9,-1.15 0.3,-0.4 0.6,-0.85 0.95,-1.3 0.4,-0.75 0.85,-1.3 1.35,-1.6 0.3,-0.35 0.6,-0.6 0.85,-0.75 -0.05,0 -0.15,0 -0.25,0.05 C 3.1,-9.9 3,-9.8 2.95,-9.75 2.1,-9.55 1.5,-9 1.15,-8.15 1.1,-8 1,-7.8 0.9,-7.65 c 0,-0.05 0,-0.15 0,-0.2 -0.45,0.75 -0.95,1.45 -1.5,2.1 0,0.05 -0.05,0.1 -0.1,0.15 -1.95,1.5 -2.8,3.4 -2.65,5.75 0,0.5 0.1,0.9 0.3,1.2 -0.1,0 -0.2,0 -0.25,0 0.35,0.25 0.65,0.45 0.95,0.6 0.15,0.1 0.35,0.2 0.5,0.25 l 0.2,0.05 c 0.05,0 0.05,0 0.1,0 C 0.1,2.8 1.65,2.2 3,0.45 3.6,0.15 4.15,-0.35 4.6,-1.05 5.35,-2.2 6.1,-3.45 6.75,-4.7 6.9,-4.95 6.95,-5.2 7,-5.4 7.1,-5.65 7.2,-5.95 7.35,-6.3 7.6,-7.05 7.55,-7.7 7.3,-8.25 z"
           inkscape:connector-curvature="0"
           style="fill:#663300" />
      </g>
      <animate
         attributeName="display"
         begin="0s"
         repeatCount="indefinite"
         dur="0.167s"
         keyTimes="0;0.798;1"
         values="none;inline;none"
         id="animate3011" />
    </g>
    <g
       id="backArmLowerRight2_2">
      <g
         id="element1">
        <path
           id="path3"
           d="m 5.35,-9.8 q 0.3,0.2 0.55,0.45 C 5.6,-9.55 5.3,-9.7 4.95,-9.8 4.4,-9.95 3.9,-10 3.45,-9.9 c -0.1,0.05 -0.2,0.15 -0.3,0.2 -0.1,0.1 -0.2,0.2 -0.3,0.35 -0.05,0 -0.15,0.05 -0.2,0.1 -0.3,0.2 -0.6,0.45 -0.85,0.75 l 0,0.1 C 1.55,-8.05 1.25,-7.65 1,-7.2 0.55,-6.55 0.1,-5.95 -0.35,-5.35 -0.75,-4.8 -1.2,-4.2 -1.7,-3.45 -2.2,-2.7 -2.6,-1.85 -2.9,-1 -2.95,-0.45 -2.95,0.05 -3,0.55 -2.95,0.8 -2.85,1 -2.75,1.2 L -2.7,1.15 c 0.05,0.05 0.15,0.15 0.25,0.3 0.25,0.4 0.6,0.7 1.15,0.85 C -0.7,2.35 -0.1,2.2 0.55,1.9 1.8,1.4 2.85,0.65 3.7,-0.35 3.9,-1 4.25,-1.6 4.8,-2.15 5.45,-3 6.1,-3.95 6.65,-4.9 c 0.05,-0.45 0.1,-0.85 0.1,-1.3 0.05,0.25 0.05,0.45 0,0.7 0.05,-0.15 0.15,-0.3 0.2,-0.4 0.05,-0.2 0.15,-0.4 0.2,-0.65 0.25,0 0.35,-0.1 0.35,-0.3 0,-0.05 0,-0.05 0.05,-0.05 0,-0.1 0,-0.2 -0.05,-0.3 0,-0.2 -0.05,-0.35 -0.1,-0.5 -0.35,-1.05 -1,-1.75 -2.05,-2.1 z"
           inkscape:connector-curvature="0"
           style="fill:#ffffcc" />
        <path
           id="path4"
           d="m 7.5,-6.85 c 0,0.2 -0.1,0.3 -0.35,0.3 C 7.1,-6.3 7,-6.1 6.95,-5.9 6.9,-5.8 6.8,-5.65 6.75,-5.5 c 0.05,-0.25 0.05,-0.45 0,-0.7 0,0.45 -0.05,0.85 -0.1,1.3 C 6.1,-3.95 5.45,-3 4.8,-2.15 4.25,-1.6 3.9,-1 3.7,-0.35 2.85,0.65 1.8,1.4 0.55,1.9 -0.1,2.2 -0.7,2.35 -1.3,2.3 -1.85,2.15 -2.2,1.85 -2.45,1.45 -2.55,1.3 -2.65,1.2 -2.7,1.15 L -2.75,1.2 C -2.85,1 -2.95,0.8 -3,0.55 c 0.05,-0.5 0.05,-1 0.1,-1.55 0.3,-0.85 0.7,-1.7 1.2,-2.45 0.5,-0.75 0.95,-1.35 1.35,-1.9 C 0.1,-5.95 0.55,-6.55 1,-7.2 1.25,-7.65 1.55,-8.05 1.8,-8.4 1.65,-8.35 1.55,-8.25 1.4,-8.15 1.55,-8.3 1.65,-8.4 1.8,-8.5 2.05,-8.8 2.35,-9.05 2.65,-9.25 2.7,-9.3 2.8,-9.35 2.85,-9.35 2.95,-9.5 3.05,-9.6 3.15,-9.7 3.25,-9.75 3.35,-9.85 3.45,-9.9 2.95,-9.85 2.5,-9.6 2.15,-9.25 2,-9.15 1.9,-9.05 1.8,-8.9 1,-8.35 0.35,-7.55 -0.15,-6.6 c -0.25,0.65 -0.55,1.2 -0.9,1.75 -1.1,0.95 -1.75,2.05 -2,3.25 -0.35,0.65 -0.45,1.35 -0.4,2.1 0.05,0.35 0.15,0.65 0.3,0.9 l 0,0.05 C -3.1,1.5 -3,1.6 -2.9,1.65 c 0.05,0.3 0.3,0.55 0.75,0.75 0.2,0.05 0.4,0.1 0.6,0.05 0.15,0.05 0.25,0.05 0.4,0.1 C 0.4,2.9 1.8,2.35 3.1,0.9 c 0.55,-0.65 1,-1.3 1.35,-2 0.75,-0.8 1.5,-1.75 2.15,-2.85 0.35,-0.5 0.55,-1 0.6,-1.5 0.25,-0.45 0.35,-0.9 0.35,-1.45 -0.05,0 -0.05,0 -0.05,0.05 z"
           inkscape:connector-curvature="0"
           style="fill:#663300" />
      </g>
      <animate
         attributeName="display"
         begin="0s"
         repeatCount="indefinite"
         dur="0.167s"
         keyTimes="0;0.399;0.798;1"
         values="none;inline;none;none"
         id="animate3017" />
    </g>
    <g
       id="backArmLowerRight2_0">
      <g
         id="element">
        <path
           id="path1"
           d="m 6.3,-9.55 q 0.074,0.148 0.125,0.3 l 0.025,0 c 0.05,0.1 0.05,0.2 0.1,0.3 C 6.5,-9.05 6.4,-9.15 6.3,-9.2 6.05,-9.35 5.8,-9.5 5.55,-9.65 4.9,-10.05 4.25,-10.25 3.65,-10.2 3.45,-10.1 3.25,-9.95 3.1,-9.8 3.3,-9.9 3.5,-9.95 3.75,-9.95 3.2,-9.7 2.7,-9.25 2.35,-8.6 2.1,-8.45 1.8,-8.25 1.55,-8 1.3,-7.4 0.9,-6.8 0.35,-6.25 c -0.3,0.55 -0.7,1.15 -1.2,1.7 -0.8,0.8 -1.4,1.65 -1.85,2.6 -0.15,0.55 -0.25,1.15 -0.25,1.75 0,0.3 0.05,0.6 0.1,0.9 l -0.05,0 c 0.05,0.1 0.05,0.2 0.05,0.3 0.4,0.5 1,0.8 1.75,0.9 C -0.15,2.1 0.65,2 1.35,1.65 1.75,1.05 2.2,0.5 2.75,0 3.15,-0.4 3.5,-0.75 3.85,-1.1 4,-1.35 4.2,-1.65 4.45,-1.9 4.95,-2.45 5.4,-3 5.8,-3.6 6.1,-4.15 6.4,-4.7 6.65,-5.3 6.75,-5.6 6.85,-5.9 6.9,-6.25 l -0.15,-0.025 0,0.025 c 0,-0.1 0,-0.2 0.05,-0.3 0.2,-0.25 0.35,-0.6 0.4,-0.95 -0.05,-0.05 -0.05,-0.05 0,-0.05 0,-0.05 0,-0.15 0,-0.2 l 0,-0.05 C 7.1,-8.25 6.95,-8.65 6.7,-9 6.6,-9.2 6.45,-9.4 6.3,-9.55 z"
           inkscape:connector-curvature="0"
           style="fill:#ffffcc" />
        <path
           id="path2"
           d="M 7.3,-7.5 C 7.25,-7.05 7.15,-6.6 6.9,-6.25 6.85,-5.9 6.75,-5.6 6.65,-5.3 6.4,-4.7 6.1,-4.15 5.8,-3.6 5.4,-3 4.95,-2.45 4.45,-1.9 4.2,-1.65 4,-1.35 3.85,-1.1 3.5,-0.75 3.15,-0.4 2.75,0 2.2,0.5 1.75,1.05 1.35,1.65 0.65,2 -0.15,2.1 -1.1,1.9 -1.85,1.8 -2.45,1.5 -2.85,1 c 0,-0.1 0,-0.2 -0.05,-0.3 -0.05,-0.3 -0.05,-0.6 -0.05,-0.9 0,-0.6 0.1,-1.2 0.25,-1.75 0.45,-0.95 1.05,-1.8 1.85,-2.6 0.5,-0.55 0.9,-1.15 1.2,-1.7 C 0.9,-6.8 1.3,-7.4 1.55,-8 1.8,-8.25 2.1,-8.45 2.35,-8.6 2.7,-9.25 3.2,-9.7 3.75,-9.95 3.5,-9.95 3.3,-9.9 3.1,-9.8 c -0.55,0.15 -1,0.45 -1.45,1 -0.25,0.3 -0.5,0.65 -0.7,1 -0.85,1.05 -1.6,2.1 -2.3,3.2 -0.6,0.85 -1.15,1.7 -1.6,2.65 -0.45,0.8 -0.6,1.65 -0.45,2.5 0.05,-0.15 0.05,-0.3 0.05,-0.45 0.05,0.75 0.35,1.45 0.95,2.15 -0.05,-0.1 -0.05,-0.2 -0.1,-0.3 0.45,0.5 1.25,0.7 2.35,0.55 C 1.3,2.3 2.4,1.55 3.2,0.3 c 0.05,0 0.05,0 0,-0.05 0.6,-0.5 1.15,-1.05 1.6,-1.7 0.4,-0.55 0.75,-1 1,-1.45 C 5.95,-3.1 6.05,-3.3 6.2,-3.5 6.4,-3.8 6.55,-4.1 6.65,-4.35 7.1,-5 7.35,-5.8 7.35,-6.65 7.4,-7 7.35,-7.3 7.3,-7.55 l 0,0.05 z"
           inkscape:connector-curvature="0"
           style="fill:#663300" />
      </g>
      <animate
         attributeName="display"
         begin="0s"
         repeatCount="indefinite"
         dur="0.167s"
         keyTimes="0;0.399;1"
         values="inline;none;none"
         id="animate3023" />
    </g>
  </g>
</svg>

<?xml version="1.0" encoding="utf-8"?>
<!-- Generator: flash2svg, http://dissentgraphics.com/tools/flash2svg -->
<svg xmlns:xlink="http://www.w3.org/1999/xlink" id="Avatar" image-rendering="auto" baseProfile="basic" version="1.1" x="0px" y="0px" width="68" height="126" xmlns="http://www.w3.org/2000/svg" viewBox="0 0 68 126">
  <defs/>
  <g id="backArmLowerRight3" overflow="visible">
    <g id="backArmLowerRight2_4">
      <g id="element2">
        <path id="path8" fill="#FFC" d="M5.3,-9.9 Q5.9,-9.55 6.25,-9.15 C5.9,-9.5 5.4,-9.75 4.8,-9.9 L4.15,-10.05 C3.95,-10.1 3.75,-10.05 3.5,-10 3.25,-9.85 2.95,-9.6 2.65,-9.25 2.15,-8.95 1.7,-8.4 1.3,-7.65 0.95,-7.2 0.65,-6.75 0.35,-6.35 0,-5.9 -0.3,-5.55 -0.55,-5.2 -1.2,-4.65 -1.5,-4.3 -1.5,-4.25 -3.2,-2.25 -3.4,-0.3 -2.15,1.55 -1.95,1.6 -1.75,1.65 -1.5,1.75 -1.25,1.85 -1.05,1.9 -0.8,1.9 0.2,1.7 1.1,1.35 1.85,0.85 L1.85,0.8 C2,0.75 2.2,0.65 2.35,0.5 3,0.05 3.5,-0.55 3.95,-1.25 3.9,-1.15 3.9,-1.05 3.85,-0.95 L3.95,-0.95 C4.8,-2.1 5.6,-3.3 6.25,-4.55 L6.15,-4.6 C6.4,-4.95 6.55,-5.35 6.6,-5.75 7.1,-6.4 7.35,-7.2 7.3,-8.2 L7.3,-8.25 C7.1,-8.65 6.8,-9.05 6.4,-9.4 6.15,-9.5 5.95,-9.6 5.75,-9.7 5.6,-9.8 5.45,-9.85 5.3,-9.9z"/>
        <path id="path9" fill="#630" d="M7.3,-8.25 L7.3,-8.2 C7.35,-7.2 7.1,-6.4 6.6,-5.75 6.55,-5.35 6.4,-4.95 6.15,-4.6 6.2,-4.65 6.3,-4.65 6.35,-4.7 6.3,-4.65 6.3,-4.6 6.25,-4.55 5.6,-3.3 4.8,-2.1 3.95,-0.95 3.9,-0.9 3.85,-0.8 3.8,-0.75 3.85,-0.8 3.85,-0.9 3.85,-0.95 3.9,-1.05 3.9,-1.15 3.95,-1.25 3.5,-0.55 3,0.05 2.35,0.5 2.2,0.65 2,0.75 1.85,0.8 L1.9,0.8 1.85,0.85 C1.1,1.35 0.2,1.7 -0.8,1.9 -1.05,1.9 -1.25,1.85 -1.5,1.75 -1.75,1.65 -1.95,1.6 -2.15,1.55 -3.4,-0.3 -3.2,-2.25 -1.5,-4.25 -1.5,-4.3 -1.2,-4.65 -0.55,-5.2 -0.3,-5.55 0,-5.9 0.35,-6.35 0.65,-6.75 0.95,-7.2 1.3,-7.65 1.7,-8.4 2.15,-8.95 2.65,-9.25 2.95,-9.6 3.25,-9.85 3.5,-10 3.45,-10 3.35,-10 3.25,-9.95 3.1,-9.9 3,-9.8 2.95,-9.75 2.1,-9.55 1.5,-9 1.15,-8.15 1.1,-8 1,-7.8 0.9,-7.65 0.9,-7.7 0.9,-7.8 0.9,-7.85 0.45,-7.1 -0.05,-6.4 -0.6,-5.75 -0.6,-5.7 -0.65,-5.65 -0.7,-5.6 -2.65,-4.1 -3.5,-2.2 -3.35,0.15 -3.35,0.65 -3.25,1.05 -3.05,1.35 -3.15,1.35 -3.25,1.35 -3.3,1.35 -2.95,1.6 -2.65,1.8 -2.35,1.95 -2.2,2.05 -2,2.15 -1.85,2.2 L-1.65,2.25 C-1.6,2.25 -1.6,2.25 -1.55,2.25 0.1,2.8 1.65,2.2 3,0.45 3.6,0.15 4.15,-0.35 4.6,-1.05 5.35,-2.2 6.1,-3.45 6.75,-4.7 6.9,-4.95 6.95,-5.2 7,-5.4 7.1,-5.65 7.2,-5.95 7.35,-6.3 7.6,-7.05 7.55,-7.7 7.3,-8.25z"/>
      </g>
      <animate attributeName="display" begin="0s" repeatCount="indefinite" dur="0.167s" keyTimes="0;0.798;1" values="none;inline;none"/>
    </g>
    <g id="backArmLowerRight2_2">
      <g id="element1">
        <path id="path3" fill="#FFC" d="M5.35,-9.8 Q5.65,-9.6 5.9,-9.35 C5.6,-9.55 5.3,-9.7 4.95,-9.8 4.4,-9.95 3.9,-10 3.45,-9.9 3.35,-9.85 3.25,-9.75 3.15,-9.7 3.05,-9.6 2.95,-9.5 2.85,-9.35 2.8,-9.35 2.7,-9.3 2.65,-9.25 2.35,-9.05 2.05,-8.8 1.8,-8.5 L1.8,-8.4 C1.55,-8.05 1.25,-7.65 1,-7.2 0.55,-6.55 0.1,-5.95 -0.35,-5.35 -0.75,-4.8 -1.2,-4.2 -1.7,-3.45 -2.2,-2.7 -2.6,-1.85 -2.9,-1 -2.95,-0.45 -2.95,0.05 -3,0.55 -2.95,0.8 -2.85,1 -2.75,1.2 L-2.7,1.15 C-2.65,1.2 -2.55,1.3 -2.45,1.45 -2.2,1.85 -1.85,2.15 -1.3,2.3 -0.7,2.35 -0.1,2.2 0.55,1.9 1.8,1.4 2.85,0.65 3.7,-0.35 3.9,-1 4.25,-1.6 4.8,-2.15 5.45,-3 6.1,-3.95 6.65,-4.9 6.7,-5.35 6.75,-5.75 6.75,-6.2 6.8,-5.95 6.8,-5.75 6.75,-5.5 6.8,-5.65 6.9,-5.8 6.95,-5.9 7,-6.1 7.1,-6.3 7.15,-6.55 7.4,-6.55 7.5,-6.65 7.5,-6.85 7.5,-6.9 7.5,-6.9 7.55,-6.9 7.55,-7 7.55,-7.1 7.5,-7.2 7.5,-7.4 7.45,-7.55 7.4,-7.7 7.05,-8.75 6.4,-9.45 5.35,-9.8z"/>
        <path id="path4" fill="#630" d="M7.5,-6.85 C7.5,-6.65 7.4,-6.55 7.15,-6.55 7.1,-6.3 7,-6.1 6.95,-5.9 6.9,-5.8 6.8,-5.65 6.75,-5.5 6.8,-5.75 6.8,-5.95 6.75,-6.2 6.75,-5.75 6.7,-5.35 6.65,-4.9 6.1,-3.95 5.45,-3 4.8,-2.15 4.25,-1.6 3.9,-1 3.7,-0.35 2.85,0.65 1.8,1.4 0.55,1.9 -0.1,2.2 -0.7,2.35 -1.3,2.3 -1.85,2.15 -2.2,1.85 -2.45,1.45 -2.55,1.3 -2.65,1.2 -2.7,1.15 L-2.75,1.2 C-2.85,1 -2.95,0.8 -3,0.55 -2.95,0.05 -2.95,-0.45 -2.9,-1 -2.6,-1.85 -2.2,-2.7 -1.7,-3.45 -1.2,-4.2 -0.75,-4.8 -0.35,-5.35 0.1,-5.95 0.55,-6.55 1,-7.2 1.25,-7.65 1.55,-8.05 1.8,-8.4 1.65,-8.35 1.55,-8.25 1.4,-8.15 1.55,-8.3 1.65,-8.4 1.8,-8.5 2.05,-8.8 2.35,-9.05 2.65,-9.25 2.7,-9.3 2.8,-9.35 2.85,-9.35 2.95,-9.5 3.05,-9.6 3.15,-9.7 3.25,-9.75 3.35,-9.85 3.45,-9.9 2.95,-9.85 2.5,-9.6 2.15,-9.25 2,-9.15 1.9,-9.05 1.8,-8.9 1,-8.35 0.35,-7.55 -0.15,-6.6 -0.4,-5.95 -0.7,-5.4 -1.05,-4.85 -2.15,-3.9 -2.8,-2.8 -3.05,-1.6 -3.4,-0.95 -3.5,-0.25 -3.45,0.5 -3.4,0.85 -3.3,1.15 -3.15,1.4 L-3.15,1.45 C-3.1,1.5 -3,1.6 -2.9,1.65 -2.85,1.95 -2.6,2.2 -2.15,2.4 -1.95,2.45 -1.75,2.5 -1.55,2.45 -1.4,2.5 -1.3,2.5 -1.15,2.55 0.4,2.9 1.8,2.35 3.1,0.9 3.65,0.25 4.1,-0.4 4.45,-1.1 5.2,-1.9 5.95,-2.85 6.6,-3.95 6.95,-4.45 7.15,-4.95 7.2,-5.45 7.45,-5.9 7.55,-6.35 7.55,-6.9 7.5,-6.9 7.5,-6.9 7.5,-6.85z"/>
      </g>
      <animate attributeName="display" begin="0s" repeatCount="indefinite" dur="0.167s" keyTimes="0;0.399;0.798;1" values="none;inline;none;none"/>
    </g>
    <g id="backArmLowerRight2_0">
      <g id="element">
        <path id="path1" fill="#FFC" d="M6.3,-9.55 Q6.374,-9.402 6.425,-9.25 L6.45,-9.25 C6.5,-9.15 6.5,-9.05 6.55,-8.95 6.5,-9.05 6.4,-9.15 6.3,-9.2 6.05,-9.35 5.8,-9.5 5.55,-9.65 4.9,-10.05 4.25,-10.25 3.65,-10.2 3.45,-10.1 3.25,-9.95 3.1,-9.8 3.3,-9.9 3.5,-9.95 3.75,-9.95 3.2,-9.7 2.7,-9.25 2.35,-8.6 2.1,-8.45 1.8,-8.25 1.55,-8 1.3,-7.4 0.9,-6.8 0.35,-6.25 0.05,-5.7 -0.35,-5.1 -0.85,-4.55 -1.65,-3.75 -2.25,-2.9 -2.7,-1.95 -2.85,-1.4 -2.95,-0.8 -2.95,-0.2 -2.95,0.1 -2.9,0.4 -2.85,0.7 L-2.9,0.7 C-2.85,0.8 -2.85,0.9 -2.85,1 -2.45,1.5 -1.85,1.8 -1.1,1.9 -0.15,2.1 0.65,2 1.35,1.65 1.75,1.05 2.2,0.5 2.75,0 3.15,-0.4 3.5,-0.75 3.85,-1.1 4,-1.35 4.2,-1.65 4.45,-1.9 4.95,-2.45 5.4,-3 5.8,-3.6 6.1,-4.15 6.4,-4.7 6.65,-5.3 6.75,-5.6 6.85,-5.9 6.9,-6.25 L6.75,-6.275 L6.75,-6.25 C6.75,-6.35 6.75,-6.45 6.8,-6.55 7,-6.8 7.15,-7.15 7.2,-7.5 7.15,-7.55 7.15,-7.55 7.2,-7.55 7.2,-7.6 7.2,-7.7 7.2,-7.75 L7.2,-7.8 C7.1,-8.25 6.95,-8.65 6.7,-9 6.6,-9.2 6.45,-9.4 6.3,-9.55z"/>
        <path id="path2" fill="#630" d="M7.3,-7.5 C7.25,-7.05 7.15,-6.6 6.9,-6.25 6.85,-5.9 6.75,-5.6 6.65,-5.3 6.4,-4.7 6.1,-4.15 5.8,-3.6 5.4,-3 4.95,-2.45 4.45,-1.9 4.2,-1.65 4,-1.35 3.85,-1.1 3.5,-0.75 3.15,-0.4 2.75,0 2.2,0.5 1.75,1.05 1.35,1.65 0.65,2 -0.15,2.1 -1.1,1.9 -1.85,1.8 -2.45,1.5 -2.85,1 -2.85,0.9 -2.85,0.8 -2.9,0.7 -2.95,0.4 -2.95,0.1 -2.95,-0.2 -2.95,-0.8 -2.85,-1.4 -2.7,-1.95 -2.25,-2.9 -1.65,-3.75 -0.85,-4.55 -0.35,-5.1 0.05,-5.7 0.35,-6.25 0.9,-6.8 1.3,-7.4 1.55,-8 1.8,-8.25 2.1,-8.45 2.35,-8.6 2.7,-9.25 3.2,-9.7 3.75,-9.95 3.5,-9.95 3.3,-9.9 3.1,-9.8 2.55,-9.65 2.1,-9.35 1.65,-8.8 1.4,-8.5 1.15,-8.15 0.95,-7.8 0.1,-6.75 -0.65,-5.7 -1.35,-4.6 -1.95,-3.75 -2.5,-2.9 -2.95,-1.95 -3.4,-1.15 -3.55,-0.3 -3.4,0.55 -3.35,0.4 -3.35,0.25 -3.35,0.1 -3.3,0.85 -3,1.55 -2.4,2.25 -2.45,2.15 -2.45,2.05 -2.5,1.95 -2.05,2.45 -1.25,2.65 -0.15,2.5 1.3,2.3 2.4,1.55 3.2,0.3 3.25,0.3 3.25,0.3 3.2,0.25 3.8,-0.25 4.35,-0.8 4.8,-1.45 5.2,-2 5.55,-2.45 5.8,-2.9 5.95,-3.1 6.05,-3.3 6.2,-3.5 6.4,-3.8 6.55,-4.1 6.65,-4.35 7.1,-5 7.35,-5.8 7.35,-6.65 7.4,-7 7.35,-7.3 7.3,-7.55 L7.3,-7.5z"/>
      </g>
      <animate attributeName="display" begin="0s" repeatCount="indefinite" dur="0.167s" keyTimes="0;0.399;1" values="inline;none;none"/>
    </g>
  </g>
</svg>
